papirus/16x16/mimetypes/text-x-chdr.svg

<?xml version="1.0" encoding="UTF-8" standalone="no"?>
<svg
   xmlns:dc="http://purl.org/dc/elements/1.1/"
   xmlns:cc="http://creativecommons.org/ns#"
   xmlns:rdf="http://www.w3.org/1999/02/22-rdf-syntax-ns#"
   xmlns:svg="http://www.w3.org/2000/svg"
   xmlns="http://www.w3.org/2000/svg"
   xmlns:sodipodi="http://sodipodi.sourceforge.net/DTD/sodipodi-0.dtd"
   xmlns:inkscape="http://www.inkscape.org/namespaces/inkscape"
   id="svg2"
   height="16px"
   width="16px"
   version="1.1"
   viewBox="0 0 16 16"
   inkscape:version="0.91 r"
   sodipodi:docname="text-x-chdr.svg">
  <defs
     id="defs12" />
  <sodipodi:namedview
     pagecolor="#ffffff"
     bordercolor="#666666"
     borderopacity="1"
     objecttolerance="10"
     gridtolerance="10"
     guidetolerance="10"
     inkscape:pageopacity="0"
     inkscape:pageshadow="2"
     inkscape:window-width="1535"
     inkscape:window-height="876"
     id="namedview10"
     showgrid="false"
     inkscape:zoom="29.5"
     inkscape:cx="7.9223164"
     inkscape:cy="8"
     inkscape:window-x="65"
     inkscape:window-y="24"
     inkscape:window-maximized="1"
     inkscape:current-layer="svg2" />
  <metadata
     id="metadata19">
    <rdf:RDF>
      <cc:Work
         rdf:about="">
        <dc:format>image/svg+xml</dc:format>
        <dc:type
           rdf:resource="http://purl.org/dc/dcmitype/StillImage" />
      </cc:Work>
    </rdf:RDF>
  </metadata>
  <path
     style="fill:#ebe8d7"
     inkscape:connector-curvature="0"
     d="M 2.75,1 C 2.33276,1 2,1.33276 2,1.75 l 0,13.5 C 2,15.667192 2.332808,16 2.75,16 l 10.5,0 C 13.6676,16 14,15.6676 14,15.25 L 14,5.5 9.875,5.125 9.5,1 Z"
     id="path5" />
  <path
     style="fill:#f8f8f0"
     inkscape:connector-curvature="0"
     d="m 9.5,1 0,3.75 c 0,0.41256 0.33744,0.75 0.75,0.75 l 3.75,0 z"
     id="path7" />
  <path
     style="fill-opacity:1;fill:#000000;opacity:0.5"
     d="M 7 8 L 7 14 L 8 14 L 8 11 L 9 11 L 9 14 L 10 14 L 10 10 L 8 10 L 8 8 L 7 8 z M 5 12 C 4.44792 12 4 12.44792 4 13 C 4 13.55208 4.44792 14 5 14 C 5.55208 14 6 13.55208 6 13 C 6 12.44792 5.55208 12 5 12 z "
     id="path9" />
  <path
     style="fill:#ffffff;fill-opacity:0.2"
     inkscape:connector-curvature="0"
     d="M 2.75,1 C 2.33276,1 2,1.33276 2,1.75 l 0,0.6 C 2,1.93276 2.33276,1.6 2.75,1.6 l 6.75,0 0,-0.6 z"
     id="path13" />
</svg>

<?xml version="1.0" encoding="UTF-8" standalone="no"?>
<svg id="svg2" xmlns:rdf="http://www.w3.org/1999/02/22-rdf-syntax-ns#" xmlns="http://www.w3.org/2000/svg" height="16px" width="16px" version="1.1" xmlns:cc="http://creativecommons.org/ns#" viewBox="0 0 16 16" xmlns:dc="http://purl.org/dc/elements/1.1/">
 <metadata id="metadata19">
  <rdf:RDF>
   <cc:Work rdf:about="">
    <dc:format>image/svg+xml</dc:format>
    <dc:type rdf:resource="http://purl.org/dc/dcmitype/StillImage"/>
   </cc:Work>
  </rdf:RDF>
 </metadata>
 <path id="path5" fill="#ccc" d="m2.75 1c-0.4172 0-0.75 0.3328-0.75 0.75v13.5c0 0.417 0.3328 0.75 0.75 0.75h10.5c0.418 0 0.75-0.332 0.75-0.75v-9.75l-4.125-0.375-0.375-4.125z"/>
 <path id="path7" fill="#f8f8f0" d="m9.5 1v3.75c0 0.41256 0.33744 0.75 0.75 0.75h3.75z"/>
 <path id="path9" opacity=".5" d="m7 8v6h1v-3h1v3h1v-4h-2v-2h-1zm-2 4c-0.5521 0-1 0.448-1 1s0.4479 1 1 1 1-0.448 1-1-0.4479-1-1-1z"/>
 <path id="path13" fill-opacity=".2" fill="#fff" d="m2.75 1c-0.4172 0-0.75 0.3328-0.75 0.75v0.6c0-0.4172 0.3328-0.75 0.75-0.75h6.75v-0.6z"/>
</svg>
